X:1
T:Title
%%score { ( 1 4 5 ) | ( 2 3 ) }
L:1/8
M:4/4
K:Bb
V:1 treble nm="Grand Piano"
V:4 treble 
V:5 treble 
V:2 bass 
V:3 bass 
V:1
 z4 z2[Q:1/4=100] [DF][DF] | [DB]3 [EA] [FB]2 c2 | d4 B2 [DF][DF] | [B,EG]3 [EGc] [DFB]2 [CEA]2 | %4
[M:3/4] [DB]6 |[M:1/4] [DF][DF] |[M:4/4] [DB]3 [EA] [FB]2 c2 | d3 c B2 [DB][Fd] | %8
 [Fc]2 [=EG]B [CFA]2 [B,EG]2 |[M:3/4] [A,F]6 |[M:1/4] FF |[M:4/4] e6 z2 | [B,DB]4 [B,DF]2 FF | %13
 c6 z2 |[M:3/4] d6 |[M:1/4] FF |[M:4/4] z4 z2 d2 | [Ge]4 [EG]2 [Gc][Gc] | B6 z2 |[M:3/4] [DB]6 |] %20
V:2
 z4 z2 [B,,F,][B,,F,] | [B,,F,]3 [C,F,] [D,B,]2[K:treble] [F,A,F]2 | %2
 [B,F]4[K:bass] [B,D]2 [B,,B,][B,,B,] | E,3 C, F,2 F,2 |[M:3/4] [B,,B,]6 |[M:1/4] [B,,B,][B,,B,] | %6
[M:4/4] [B,,F,]3 [C,F,] [D,B,]2[K:treble] [F,A,F]2 | F4[K:bass] z4 | [C,A,]2 z G B,,2 C,2 | %9
[M:3/4] F,6 |[M:1/4] F,F, |[M:4/4] [F,A,F]2 [F,A,]2 [F,A,]2 [F,CE]2 | B,,4 B,,2 F,F, | %13
 [F,A,E]2 [F,A,]2 [F,A,]2 [G,B,D][F,A,E] |[M:3/4] [B,F]6 |[M:1/4] F,F, | %16
[M:4/4] [B,,F,]3 [D,B,][K:treble] [F,A,F]2 .[B,F]2 | [E,B,]4 [E,B,]2 [E,E][E,E] | %18
 [F,DF]2 [F,D]2 [F,C]2 [F,CE]2 |[M:3/4] [B,,B,]6 |] %20
V:3
 x8 | x6[K:treble] x2 | x4[K:bass] x4 | x8 |[M:3/4] x6 |[M:1/4] x2 |[M:4/4] x6[K:treble] x2 | %7
 B,3- [B,E][K:bass] [B,D]2 [B,,B,][B,,B,] | z2 [C,G,]2 z4 |[M:3/4] x6 |[M:1/4] x2 |[M:4/4] x8 | %12
 x8 | x8 |[M:3/4] x6 |[M:1/4] x2 |[M:4/4] x4[K:treble] x4 | x8 | x8 |[M:3/4] x6 |] %20
V:4
 x8 | x8 | x8 | x8 |[M:3/4] x6 |[M:1/4] x2 |[M:4/4] x8 | x8 | x8 |[M:3/4] x6 |[M:1/4] x2 | %11
[M:4/4] z2 F2 FFGA | x8 | z2 E2 z cBc |[M:3/4] x6 |[M:1/4] x2 |[M:4/4] [DB]3 [FB] c2 z _A | x8 | %18
 z2 F2 z AGA |[M:3/4] x6 |] %20
V:5
 x8 | x8 | x8 | x8 |[M:3/4] x6 |[M:1/4] x2 |[M:4/4] x8 | x8 | x8 |[M:3/4] x6 |[M:1/4] x2 | %11
[M:4/4] x8 | x8 | z4 E2 z2 |[M:3/4] x6 |[M:1/4] x2 |[M:4/4] x8 | x8 | z4 E2 z2 |[M:3/4] x6 |] %20

